X: 376
T: Bir Gün O Güzel Şâdedecek...
C: Musa Süreyya Bey
O: Turkey
F: http://compmusic.upf.edu/node/140
N: nihavent--sarki--senginsemai--bir_gun--musa_sureyya_bey
N: makam= nihavent
N: form= sarki
N: usul= senginsemai = 6/4
M: 6/4
L: 1/16
K: C _B _e  
Q: 1/4=60
%%MIDI tuningsystem comma53
G4 d4 dedc cBBc d6c2  | c3e d2c2 cBBA AGG^F G8  | 
w:  ARANAĞME  |   | 
d4 ^c4 d4 e^fed c8  | ^f4 g3a =f3e ^feed d8  | \
w:   |   | 
d4 g3f e3d c2d2 e6d2  | 
w:   | 
c3e d2c2 B2A2 BAG^F G8  | G4 d4 dedc cBBc d6c2  | 
w:   |  ARANAĞME  | 
c3e d2c2 cBBA AGG^F G8  | d4 ^c4 d4 e^fed c8  | 
w:   |   | 
^f4 g3a =f3e ^feed d8  | d4 g3f e3d c2d2 e6d2  | \
w:   |   | 
c3e d2c2 B2A2 BAG^F G8  | 
w:   | 
G4 d4 d2{e}dc cBBc d6z2  | c=Bce d2c2 _B3A AGG^F G6z2  | 
w:  Bir  gün  o  *  *  *  gü *  *  *  zel   |  şâ *  *  *  *  *  de *  de *  *  *  cek   | 
^fgab c'2ba aggf feed a2gf feed  | 
w:  ru *  *  *  *  *  *  hu *  *  *  mu  *  *  *  san  | 
d8 dedc dcBA G8  | G4 d4 d2{e}dc cBBc d6z2  | 
w:  dım   SAZ  |  Bir  gün  o  *  *  *  gü *  *  *  zel   | 
c=Bce d2c2 _B3A AGG^F G6z2  | ^fgab c'2ba aggf feed a2gf feed  | 
w:  şâ *  *  *  *  *  de *  de *  *  *  cek   |  ru *  *  *  *  *  *  hu *  *  *  mu  *  *  *  san  | 
d8 dedc dcBc d8  | d4 f3e d4 g4 f2g2 f2e2  | \
w:  dım   SAZ  |  Sa kin  *  ge ce ler   | 
edef d3c c3B B2c2 d8  | 
w:  bû *  *  *  *  *  si *  şî  *  hic  | 
A2B4BA G4 d4 A2{c}BA AGG^F  | G3A B2c2 dedc dcBc d8  | 
w:  râ *  *  *  nı nı  an  |  dım   SAZ  | 
d4 f3e d4 g4 f2g2 f2e2  | edef d3c c3B B2c2 d8  | \
w:  Sa kin  *  ge ce ler   |  bû *  *  *  *  *  si *  şî  *  hic  | 
A2B4BA G4 d4 A2{c}BA AGG^F  | 
w:  râ *  *  *  nı nı  an  | 
G4 g4 f2g2 a2{b}ag g8  | f4 g4 f2g2 a2{b}ag g6z2  | \
w:  dım   SAZ  |  Aş kın  e *  ze *  *  *  lî   | 
f2g2 f_1/4edc defg feed d6z2  | 
w:  ol *  *  *  *  *  du *  *  *  ğu *  *  *  na   | 
^fgab c'2ba aggf feed a2gf feed  | 
w:  son *  *  *  *  *  *  ra  *  *  *  i *  *  *  nan  | 
d4 g4 f2g2 a2ag g8  | f4 g4 f2g2 a2{b}ag g6z2  | \
w:  dım   SAZ  |  Aş kın  e *  ze *  *  *  lî   | 
f2g2 f_1/4edc defg feed d6z2  | 
w:  ol *  *  *  *  *  du *  *  *  ğu *  *  *  na   | 
^fgab c'2ba aggf feed a2gf feed  | 
w:  son *  *  *  *  *  *  ra  *  *  *  i *  *  *  nan  | 
d8 dedc dcBc d8  | d4 f3e d4 g4 f2g2 f2e2  | \
w:  dım   SAZ  |  Sa kin  *  ge ce ler   | 
edef d3c c3B B2c2 d8  | 
w:  bû *  *  *  *  *  si *  şî  *  hic  | 
A2B4BA G4 d4 A2{c}BA AGG^F  | G3A B2c2 dedc dcBc d8  | 
w:  râ *  *  *  nı nı  an  |  dım   SAZ  | 
d4 f3e d4 g4 f2g2 f2e2  | edef d3c c3B B2c2 d8  | \
w:  Sa kin  *  ge ce ler   |  bû *  *  *  *  *  si *  şî  *  hic  | 
A2B4BA G4 d4 A2{c}BA AGG^F  | 
w:  râ *  *  *  nı nı  an  | 
G4 |
w:  dım    | 


